X:193
T:Vals efter Munter Johan
T:(SvL Jämtland 193)
R:Vals
S:Johan Olofsson Munter
O:Mattmar, Jämtland
B:Svenska Låtar Jämtland
M:3/4
L:1/8
K:F
uc2|(cB Ac fa)|(cB Ac fa)|(ga b)(c e)g|(fg) af c2|(cB Ac fa)|
(cB Ac fa)|(ga b)(c e)g|f2 z2:| |:[K:Bb]u(Bd)|f2 g(f e)c|B2 {/c}B2 A2|
{de}d(c A)(F G)A|B(F B)(c d)e|f2 g(f e)c|B2 {/c}B2 A2|{de}d(c A)(F G)A|B2 z2:|

